apps/www/public/images/ga/partners/vercel--dark.svg

<svg xmlns="http://www.w3.org/2000/svg" width="284" height="65" fill="none" viewBox="0 0 284 65"><g clip-path="url(#a)"><g clip-path="url(#b)"><path fill="#ededed" d="M141.68 16.25c-11.04 0-19 7.2-19 18s8.96 18 20 18c6.67 0 12.55-2.64 16.19-7.09l-7.65-4.42c-2.02 2.21-5.09 3.5-8.54 3.5-4.79 0-8.86-2.5-10.37-6.5h28.02c.22-1.12.35-2.28.35-3.5 0-10.79-7.96-17.99-19-17.99m-9.46 14.5c1.25-3.99 4.67-6.5 9.45-6.5 4.79 0 8.21 2.51 9.45 6.5zm117.14-14.5c-11.04 0-19 7.2-19 18s8.96 18 20 18c6.67 0 12.55-2.64 16.19-7.09l-7.65-4.42c-2.02 2.21-5.09 3.5-8.54 3.5-4.79 0-8.86-2.5-10.37-6.5h28.02c.22-1.12.35-2.28.35-3.5 0-10.79-7.96-17.99-19-17.99m-9.45 14.5c1.25-3.99 4.67-6.5 9.45-6.5 4.79 0 8.21 2.51 9.45 6.5zm-39.03 3.5c0 6 3.92 10 10 10 4.12 0 7.21-1.87 8.8-4.92l7.68 4.43c-3.18 5.3-9.14 8.49-16.48 8.49-11.05 0-19-7.2-19-18s7.96-18 19-18c7.34 0 13.29 3.19 16.48 8.49l-7.68 4.43c-1.59-3.05-4.68-4.92-8.8-4.92-6.07 0-10 4-10 10m82.48-29v46h-9v-46zM37.59.25l36.95 64H.64zm92.38 5-27.71 48-27.71-48h10.39l17.32 30 17.32-30zm58.91 12v9.69c-1-.29-2.06-.49-3.2-.49-5.81 0-10 4-10 10v14.8h-9v-34h9v9.2c0-5.08 5.91-9.2 13.2-9.2"/></g></g><defs><clipPath id="a"><path fill="#fff" d="M0 0h284v65H0z"/></clipPath><clipPath id="b"><path fill="#fff" d="M0 0h284v65H0z"/></clipPath></defs></svg>

<svg width="284" height="65" viewBox="0 0 284 65" fill="none" xmlns="http://www.w3.org/2000/svg">
<g clip-path="url(#clip0_868_2128)">
<g clip-path="url(#clip1_868_2128)">
<path d="M141.68 16.25C130.64 16.25 122.68 23.45 122.68 34.25C122.68 45.05 131.64 52.25 142.68 52.25C149.35 52.25 155.23 49.61 158.87 45.16L151.22 40.74C149.2 42.95 146.13 44.24 142.68 44.24C137.89 44.24 133.82 41.74 132.31 37.74H160.33C160.55 36.62 160.68 35.46 160.68 34.24C160.68 23.45 152.72 16.25 141.68 16.25ZM132.22 30.75C133.47 26.76 136.89 24.25 141.67 24.25C146.46 24.25 149.88 26.76 151.12 30.75H132.22ZM249.36 16.25C238.32 16.25 230.36 23.45 230.36 34.25C230.36 45.05 239.32 52.25 250.36 52.25C257.03 52.25 262.91 49.61 266.55 45.16L258.9 40.74C256.88 42.95 253.81 44.24 250.36 44.24C245.57 44.24 241.5 41.74 239.99 37.74H268.01C268.23 36.62 268.36 35.46 268.36 34.24C268.36 23.45 260.4 16.25 249.36 16.25ZM239.91 30.75C241.16 26.76 244.58 24.25 249.36 24.25C254.15 24.25 257.57 26.76 258.81 30.75H239.91ZM200.88 34.25C200.88 40.25 204.8 44.25 210.88 44.25C215 44.25 218.09 42.38 219.68 39.33L227.36 43.76C224.18 49.06 218.22 52.25 210.88 52.25C199.83 52.25 191.88 45.05 191.88 34.25C191.88 23.45 199.84 16.25 210.88 16.25C218.22 16.25 224.17 19.44 227.36 24.74L219.68 29.17C218.09 26.12 215 24.25 210.88 24.25C204.81 24.25 200.88 28.25 200.88 34.25ZM283.36 5.25V51.25H274.36V5.25H283.36ZM37.5896 0.25L74.5396 64.25H0.639648L37.5896 0.25ZM129.97 5.25L102.26 53.25L74.5497 5.25H84.9397L102.26 35.25L119.58 5.25H129.97ZM188.88 17.25V26.94C187.88 26.65 186.82 26.45 185.68 26.45C179.87 26.45 175.68 30.45 175.68 36.45V51.25H166.68V17.25H175.68V26.45C175.68 21.37 181.59 17.25 188.88 17.25Z" fill="#EDEDED"/>
</g>
</g>
<defs>
<clipPath id="clip0_868_2128">
<rect width="284" height="65" fill="white"/>
</clipPath>
<clipPath id="clip1_868_2128">
<rect width="284" height="65" fill="white"/>
</clipPath>
</defs>
</svg>
